X:1
T:Deliver us, O Lord
T:Orlando Gibbons (1583-1625)
T:Ps 106:47
T:Deliver us, O Lord
T:© 2019 by Paul R Marchesano. May be freely copied for nonprofit use.
T:© 2019 by Paul R Marchesano. May be freely copied for nonprofit use.
T:© 2019 by Paul R Marchesano. May be freely copied for nonprofit use.
T:© 2019 by Paul R Marchesano. May be freely copied for nonprofit use.
C:Orlando Gibbons
C:(1583-1625)
Z:Ps 106:47
Z:© 2019 by Paul R Marchesano. May be freely copied for nonprofit use.
%%score [ 1 2 3 4 ]
L:1/8
Q:1/4=100
M:4/4
K:Bb
V:1 treble nm="Soprano" snm="S"
V:2 treble nm="Alto" snm="A"
V:3 treble-8 nm="Tenor" snm="T"
V:4 bass nm="Bass" snm="B"
V:1
 z8 | z8 | z8 | c2 f4 =e2 | f2 d2 c3 e | d2 =B2 c2 _B2- | B2 A2 B4- | B4 z4 | F2 B4 A2 | %9
w: |||De- li- ver|us, O Lord our|God, O Lord our|_ _ God,|_|de- li- ver|
 B2 G2 A3 B | c2 B4 A2 | B2 f2 f3 e | d2 dc B3 c | d2 e2 f2 F2 | G4 A4 | z4 f3 e | dc B2 B3 _A | %17
w: us, O Lord _|O Lord our|God, and gath- er|us from a- mong the|heath- * en, the|heath- en,|that we|may give thanks, that we|
 GF E2 B2 c2 | FG A2 G2 c2- | c2 =B2 c2 c2 | e3 e d2 c2- | cB G2 A2 c2 | c3 c cB B2- | B2 A2 B4 |] %24
w: may give thanks, un- to|Thy _ name, Thy ho-|* ly name, and|make our boast of|_ _ Thy praise, and|make our boast _ of|_ Thy praise.|
V:2
 z8 | z4 F2 B2- | B2 A2 B2 G2 | E2 F2 G4 | F2 F2 _A2 G2 | FD G4 F2 | G2 F2 F2 D2 | B,4 D2 F2- | %8
w: |De- li-|* ver us, O|Lord _ our|God, O Lord our|God, de- li- ver|us, O Lord our|God, de- li-|
 F2 =E2 F3 C | G3 G C2 F2 | G2 F2 F2 F2 | F3 E D4 | z2 B2 B3 _A | G2 GG F2 CD | =E F2 E F3 G | %15
w: * ver us, O|Lord our God, de-|li- ver us, O|Lord our God,|and gath- er|us from a- mong the _|heath- * * en, the|
 AG F2 F2 F2- | FEDC B,2 B2- | B_AGF E4 | z2 CD EF G2 | G3 G G2 G2 | G3 A B2 F2- | F2 =E2 F2 _A2 | %22
w: heath- * * en, that|_ we may give thanks, that|_ we may give thanks,|un- * to _ Thy|ho- ly name, and|make our boast of|_ Thy praise, and|
 F3 C !courtesy!_E2 F2- | FE C2 D4 |] %24
w: make our boast of|_ _ Thy praise.|
V:3
 z4 B2 f2- | f2 =e2 f2 d2 | c4 B4 | c2 B2 d2 c2- | c2 F2 c4 | d4 c2 F2 | c4 B2 f2- | f2 d2 f2 c2 | %8
w: De- li-|* ver us, O|Lord our|God, O Lord our|_ _ God,|O Lord our|God, de- li-|* ver us, O|
 d2 B2 c4 | B4 f2 c2- | c2 FGAB c2 | B4 f2 f2- | fe d2 dc B2- | B2 B4 A2 | c4 c4 | c3 B AG F2 | %16
w: Lord _ our|God, O Lord|_ our _ _ _ _|God, and gath-|* er us from a- mong|_ the _|heath- en,|that we may give thanks,|
 f3 e dc B2- | B2 B2 G2 G2 | c2 F2 c2 c2 | d2 d2 =e2 c2 | c3 c B2 A>B | c4 F2 c2 | c3 _A B2 F2 | %23
w: that we may give thanks,|_ un- to Thy|ho- ly name, Thy|ho- ly name, and|make our boast of _|Thy praise, and|make our boast of|
 c4 B4 |] %24
w: Thy praise.|
V:4
 B,,2 B,4 A,2 | B,2 G,2 F,2 G,2 | E,2 F,2 D,2 E,2 | C,2 D,2 B,,2 C,2 | A,,2 B,,2 C,4 | %5
w: De- li- ver|us, O Lord our|God, de- li- ver|us, O Lord our|God, de- li-|
 F,2 G,2 C,2 D,2 | E,C, F,2 B,,4 | B,,2 B,4 A,2 | B,2 G,2 F,4 | G,4 F,4 | C,2 D,E, F,4 | B,,8 | %12
w: ver us, O _|Lord _ our God,|de- li- ver|us, O Lord|our God,|O Lord _ our|God,|
 B,2 B,3 _A, G,2 | G,F, E,2 D,E, F,2 | C,4 F,4- | F,2 F,3 E, D,C, | B,,2 B,3 _A, G,F, | %17
w: and gath- er us|from a- mong the _ _|heath- en,|_ that we may give|thanks, that we may give|
 E,2 E,3 D, C,B,, | A,,3 B,, C,D, E,C, | G,2 G,2 C,4 | z8 | z4 z2 F,2 | F,3 F, E,2 D,>E, | %23
w: thanks, that we may give|thanks, un- to _ Thy _|ho- ly name,||and|make our boast of _|
 F,4 B,,4 |] %24
w: Thy praise.|

